X:1
T:Honorable Mrs. Fraser of Lovat, The
M:C
L:1/8
R:Strathspey
Q:"Slowish"
S:Gow - The First Collection of Niel Gow's Reels (1787, revised 1801), p. 27
Z:AK/Fiddler's Companion
K:Amin
G|(E<A,) TE>D EA,TA>C|B,>G (E/D/)C/B,/ {B,}DG,G, {^F}G|(E<A,) TE>D EA,A,B,/C/|DE/F/ (E/D/).C/.B,/ CA,A,:||
Tc/>B/|.A.a.c.a Aa {f}ed/c/|GgBg Gg (e/d/).c/.B/|Aaca Aa (f/e/).d/.c/|(B/c/d/B/) e/>c/d/>B/ cAA Tc/>B/|
Aaca Aa (f/e/).d/.c/|GgBg Gg (e/d/).c/.B/|.A/.B/.c/.A/ .B/.c/.d/.B/ .c/.d/.e/.c/ .d/.e/.f/.d/|e>E (e/d/).c/.B/ cAA||

